!!!COM: Music21
!!!OTL: strathspey_Shamrock--The
!!!OMV: strathspey_Shamrock--The
**kern
*clefG2
*k[]
*M4/4
=1
12fL
12g
12aJ
=
8.ddL
16ccJk
8.aL
16bJk
8.ccL
16bJk
12ccL
12b
12aJ
=
8.gL
16eJk
12eL
12e
12eJ
8.ccL
16eJk
8.gL
16ccJk
=
12ddL
12dd
12ccJ
8.aL
16bJk
[4cc
8.ccL]
16aJk
=
8.gL
16eJk
16ccKL
8.eJ
4d
4ryy
!!linebreak:original
=||
*M4/4
12fL
12g
12aJ
=
8.ddL
16ccJk
8.aL
16bJk
8.ccL
16bJk
12ccL
12b
12aJ
=
8.gL
16eJk
12eL
12e
12eJ
8.ccL
16eJk
8.gL
16ccJk
=
12ddL
12dd
12ccJ
8.aL
16bJk
[4cc
8.ccL]
16aJk
=
8.gL
16eJk
16ccKL
8.eJ
4d
4ryy
!!linebreak:original
=||
8.fL
16gJk
2.ryy
=
8.aL
16ddJk
12ddL
12dd
12ddJ
8.aL
16ddJk
12ffL
12ee
12ddJ
=
8.ccL
16ddJk
8.eeL
16ffJk
4gg
12ffL
12ee
12ddJ
=
8.aL
16ddJk
12ddL
12dd
12cc#XJ
8.ddL
16ffJk
8.eeL
16ddJk
=
8.eeL
16ddJk
8.ccL
16bJk
8.ccL
16aJk
12eL
12f
12gJ
!!linebreak:original
=
8.aL
16ddJk
8.fL
16ddJk
8.aL
16ddJk
12ffL
12ee
12ddJ
=
4cc
12ddL
12ee
12ffJ
4gg
12ffL
12ee
12ddJ
=
8.aaL
16ffJk
8.ggL
16eeJk
12ffL
12ee
12ddJ
8.eeL
16ccJk
=
16aKL
8.ddJ
8.ddL
16cc#XJk
4dd
4ryy
=||
*-
